symbols/web/burst_mode/materialsymbolsoutlined/burst_mode_wght600grad200_20px.svg

<svg xmlns="http://www.w3.org/2000/svg" height="20" width="20"><path d="M3.354 16.646V3.354h2.292v13.292Zm-4 0V3.354h2.292v13.292Zm10.646 0q-1.083 0-1.865-.781-.781-.782-.781-1.865V6q0-1.083.781-1.865.782-.781 1.865-.781h8q1.104 0 1.875.781.771.782.771 1.865v8q0 1.083-.771 1.865-.771.781-1.875.781ZM10 14h8V6h-8v8Zm.479-1.417h7.083l-2.374-3.229-1.584 2.063-1.146-1.521ZM10 6v8-8Z"/></svg>

<svg xmlns="http://www.w3.org/2000/svg" height="20" width="20"><path d="M3.354 16.646V3.354H5.646V16.646ZM-0.646 16.646V3.354H1.646V16.646ZM10 16.646Q8.917 16.646 8.135 15.865Q7.354 15.083 7.354 14V6Q7.354 4.917 8.135 4.135Q8.917 3.354 10 3.354H18Q19.104 3.354 19.875 4.135Q20.646 4.917 20.646 6V14Q20.646 15.083 19.875 15.865Q19.104 16.646 18 16.646ZM10 14H18Q18 14 18 14Q18 14 18 14V6Q18 6 18 6Q18 6 18 6H10Q10 6 10 6Q10 6 10 6V14Q10 14 10 14Q10 14 10 14ZM10.479 12.583H17.562L15.188 9.354L13.604 11.417L12.458 9.896ZM10 6Q10 6 10 6Q10 6 10 6V14Q10 14 10 14Q10 14 10 14Q10 14 10 14Q10 14 10 14V6Q10 6 10 6Q10 6 10 6Z"/></svg>
